openframe-frontend-core/src/components/icons-v2/brand-logos/behance-square.svg

<svg width="24" height="24" viewBox="0 0 24 24" fill="none" xmlns="http://www.w3.org/2000/svg">
<path d="M19.875 6C19.875 4.96447 19.0355 4.125 18 4.125H6C4.96447 4.125 4.125 4.96447 4.125 6V18C4.125 19.0355 4.96447 19.875 6 19.875H18C19.0355 19.875 19.875 19.0355 19.875 18V6ZM22.125 18C22.125 20.2782 20.2782 22.125 18 22.125H6C3.72183 22.125 1.875 20.2782 1.875 18V6C1.875 3.72183 3.72183 1.875 6 1.875H18C20.2782 1.875 22.125 3.72183 22.125 6V18Z" fill="#888888"/>
<path d="M9.62646 14C9.62646 13.5169 9.23496 13.1258 8.75195 13.1255H7.375V14.8745H8.75195C9.23496 14.8742 9.62646 14.4831 9.62646 14ZM15.7495 9.37549C17.4754 9.37549 18.8755 10.7741 18.8755 12.5V12.9995C18.8755 13.6207 18.3716 14.1242 17.7505 14.1245H14.8867C14.9473 14.5484 15.3089 14.8743 15.7495 14.8745C16.1211 14.8745 16.4037 14.7283 16.5435 14.5786C16.9674 14.1246 17.6787 14.1006 18.1328 14.5244C18.5868 14.9483 18.6121 15.6596 18.1885 16.1138C17.5784 16.7672 16.6758 17.1245 15.7495 17.1245C14.0238 17.1242 12.625 15.7257 12.625 14V12.5C12.625 10.7743 14.0238 9.37575 15.7495 9.37549ZM15.7495 11.6255C15.5121 11.6256 15.2977 11.7208 15.1401 11.8745H16.3604C16.2026 11.7206 15.9873 11.6255 15.7495 11.6255ZM16.4995 6.875L16.6152 6.88086C17.1824 6.93857 17.6245 7.41759 17.6245 8C17.6245 8.58241 17.1824 9.06143 16.6152 9.11914L16.4995 9.125H14.9995C14.3784 9.12474 13.8745 8.62116 13.8745 8C13.8745 7.37884 14.3784 6.87526 14.9995 6.875H16.4995ZM9.62646 9.99951C9.6262 9.51666 9.2348 9.12528 8.75195 9.125H7.375V10.8755H8.75195L8.92773 10.8579C9.32654 10.7764 9.62646 10.4224 9.62646 9.99951ZM11.8765 9.99951C11.8765 10.7603 11.6033 11.4571 11.1514 11.999C11.6039 12.5411 11.8765 13.2386 11.8765 14C11.8765 15.7257 10.4776 17.1242 8.75195 17.1245H6.82129C5.88444 17.1244 5.125 16.3651 5.125 15.4282V8.57129C5.12508 7.63449 5.88449 6.87508 6.82129 6.875H8.75195C10.4774 6.87528 11.8762 8.27402 11.8765 9.99951Z" fill="#888888"/>
</svg>

<svg xmlns="http://www.w3.org/2000/svg" width="24" height="24" fill="none" viewBox="0 0 24 24">
  <path fill="#888" d="M19.875 6c0-1.036-.84-1.875-1.875-1.875H6c-1.036 0-1.875.84-1.875 1.875v12c0 1.035.84 1.875 1.875 1.875h12c1.035 0 1.875-.84 1.875-1.875V6Zm2.25 12A4.125 4.125 0 0 1 18 22.125H6A4.125 4.125 0 0 1 1.875 18V6A4.125 4.125 0 0 1 6 1.875h12A4.125 4.125 0 0 1 22.125 6v12Z"/>
  <path fill="#888" d="M9.626 14a.875.875 0 0 0-.874-.874H7.375v1.748h1.377A.875.875 0 0 0 9.626 14Zm6.123-4.625a3.125 3.125 0 0 1 3.126 3.125v.5c0 .62-.503 1.124-1.125 1.124h-2.863c.06.424.422.75.862.75.372 0 .655-.146.795-.295a1.124 1.124 0 0 1 1.645 1.535c-.61.653-1.513 1.01-2.44 1.01A3.125 3.125 0 0 1 12.625 14v-1.5a3.125 3.125 0 0 1 3.124-3.125Zm0 2.25a.87.87 0 0 0-.609.25h1.22a.872.872 0 0 0-.61-.25Zm.75-4.75.116.006a1.125 1.125 0 0 1 0 2.238l-.115.006H15a1.125 1.125 0 0 1 0-2.25h1.5ZM9.627 10a.875.875 0 0 0-.874-.875H7.375v1.75h1.377l.176-.017A.876.876 0 0 0 9.626 10Zm2.25 0c0 .76-.273 1.457-.725 1.999a3.125 3.125 0 0 1-2.4 5.126h-1.93c-.937 0-1.696-.76-1.696-1.697V8.571c0-.937.76-1.696 1.696-1.696h1.931A3.125 3.125 0 0 1 11.876 10Z"/>
</svg>
